_posts/events/tile.svg

<svg width="240" height="240" fill="none" xmlns="http://www.w3.org/2000/svg"><path d="M145.924 130.237l3.574.58-2.116-2.937L41.6024-18.9653l-.8638-1.1992-1.2119.8459.8586 1.23c-.8586-1.23-.859-1.2297-.8595-1.2293l-.0015.001-.0046.0032-.0155.0109-.056.0397c-.0485.0345-.119.085-.2107.1516-.1835.1331-.4522.3306-.8.5933-.6957.5254-1.7084 1.3113-2.9909 2.3638-2.5648 2.105-6.2093 5.2769-10.5553 9.56356C16.1997 1.98214 4.69837 15.0177-6.58508 32.9-17.8786 50.7982-24.6078 67.4508-28.5154 79.6371c-1.954 6.0939-3.2034 11.0738-3.9653 14.538-.381 1.7322-.6402 3.0857-.8048 4.0104-.0823.4624-.1409.8176-.1792 1.0593-.0192.1209-.0333.2134-.0428.2768l-.0108.0732-.0028.0199-.0009.0059-.0002.0018c-.0001.0007-.0002.0012 1.4852.2097l-1.4854-.2085-.2041 1.4534 1.4492.236 178.2013 28.924z" fill="#FFEA56" stroke="#000" stroke-width="3"/><mask id="a" maskUnits="userSpaceOnUse" x="-68" y="-40" width="221" height="232"><path d="M145.924 130.237l3.574.58-2.116-2.937L41.6024-18.9653l-.8638-1.1992-1.2119.8459.8586 1.23c-.8586-1.23-.859-1.2297-.8595-1.2293l-.0015.001-.0046.0032-.0155.0109-.056.0397c-.0485.0345-.119.085-.2107.1516-.1835.1331-.4522.3306-.8.5933-.6957.5254-1.7084 1.3113-2.9909 2.3638-2.5648 2.105-6.2093 5.2769-10.5553 9.56356C16.1997 1.98214 4.69837 15.0177-6.58508 32.9-17.8786 50.7982-24.6078 67.4508-28.5154 79.6371c-1.954 6.0939-3.2034 11.0738-3.9653 14.538-.381 1.7322-.6402 3.0857-.8048 4.0104-.0823.4624-.1409.8176-.1792 1.0593-.0192.1209-.0333.2134-.0428.2768l-.0108.0732-.0028.0199-.0009.0059-.0002.0018c-.0001.0007-.0002.0012 1.4852.2097l-1.4854-.2085-.2041 1.4534 1.4492.236 178.2013 28.924z" fill="#fff" stroke="#fff" stroke-width="3"/></mask><g mask="url(#a)"><path fill-rule="evenodd" clip-rule="evenodd" d="M51.7222-2.58277L40.5648-18.0669S17.2897-1.82604-5.13623 33.7108C-27.5621 69.2476-31.8521 99.8316-31.8521 99.8316l19.3469 3.1414c2.55077-10.9718 9.31301-33.8546 25.3523-59.271C27.8204 19.9748 43.1723 4.84966 51.7222-2.58277z" fill="#8BB2E8"/></g><path d="M-13.2834 101.371c6.23571-21.8668 14.47514-40.4586 25.6782-57.9411C23.5979 25.9474 36.5039 10.9569 51.113-1.54166" stroke="#000" stroke-width="3" stroke-linecap="square"/><path fill-rule="evenodd" clip-rule="evenodd" d="M99.1732 89.5366c1.4568 3.794-.2944 7.9948-3.9104 9.3828-3.5077 1.3466-7.4821-.4485-9.0464-4.0204l-6.4551 3.1825c3.532 7.3175 12.0297 10.4705 18.9803 7.0435 6.9504-3.427 9.7224-12.1362 6.1904-19.4532l-6.1387 3.0264c.1413.2682.2684.5479.3799.8384zM33.1479 89.6618c6.9606-2.6719 10.4373-10.4807 7.7653-17.4413-2.6719-6.9606-10.4806-10.4373-17.4413-7.7654-6.9606 2.672-10.4373 10.4807-7.7653 17.4413 2.6719 6.9607 10.4806 10.4373 17.4413 7.7654zM58.3728 52.1291c6.9606-2.672 10.4373-10.4807 7.7653-17.4413-2.6719-6.9607-10.4806-10.4373-17.4413-7.7654-6.9606 2.6719-10.4373 10.4807-7.7653 17.4413 2.6719 6.9606 10.4806 10.4373 17.4413 7.7654zM73.2497 83.9085c4.6404-1.7813 6.8779-7.1961 4.9977-12.0944-1.8803-4.8982-7.1663-7.425-11.8067-5.6437-4.6404 1.7813-6.878 7.1961-4.9978 12.0944 1.8803 4.8982 7.1663 7.425 11.8068 5.6437z" fill="#B23221"/><path d="M144.798 168.583l26.786-42.904 25.874 16.182-26.773 42.883c-4.465 7.153-13.885 9.328-21.034 4.857-7.141-4.466-9.313-13.874-4.853-21.018z" fill="#1F1D1B" stroke="#000" stroke-width="3"/><path fill-rule="evenodd" clip-rule="evenodd" d="M238.22 148.951c-18.557 6.382-39.301 5.363-56.432-5.403-17.132-10.765-27.136-29.069-29.568-48.6405l86 54.0435z" fill="#1F1D1B"/><path fill-rule="evenodd" clip-rule="evenodd" d="M236.672 149.907l-84.606-52.8102c-2.578-17.1226.716-35.3777 10.187-50.5178 19.914-31.8343 65.825-47.80245 97.694-27.9102 31.869 19.8923 37.627 68.1122 17.713 99.9462-9.47 15.14-24.452 26.101-40.988 31.292z" fill="#E376B5"/><path clip-rule="evenodd" d="M180.777 144.039c31.802 19.89 75.985 6.537 95.857-25.293 19.872-31.8295 14.126-80.0426-17.676-99.932-31.802-19.88951-77.617-3.9237-97.489 27.9061s-12.494 77.4299 19.308 97.3189z" stroke="#000" stroke-width="3"/><path d="M208.995 191.79c1.21-.519 1.21-.519 6.581-2.862 4.958-2.148 8.429-4.101 11.499-6.472 2.632-2.02 4.198-3.956 5.311-6.58 1.425-3.358 1.39-6.386-.12-8.761-.868-1.359-2.129-2.473-3.598-3.096-1.26-.535-2.877-.809-3.91-.71-1.606.185-3.288 1.328-4.331 2.909-.62.975-.814 1.14-1.024 1.051-.21-.089-.2-.209.045-1.467.388-1.693.102-3.548-.731-4.892-.642-1.016-1.627-1.806-3.132-2.444-2.623-1.114-4.948-.986-7.178.379-1.738 1.079-3.323 2.965-4.184 4.994-1.456 3.428-1.464 8.213.049 14.181 1.002 4.058 1.334 5.024 4.723 13.77z" fill="#E8B9CE"/><path d="M208.995 191.79l-1.399.542.561 1.448 1.428-.611-.59-1.379zm6.581-2.862l-.596-1.377-.004.002.6 1.375zm11.499-6.472l-.913-1.19-.004.003.917 1.187zm5.191-15.341l1.266-.805-.002-.002-1.264.807zm-7.508-3.806l-.142-1.493-.015.001-.015.002.172 1.49zm-4.331 2.909l-1.252-.826-.007.01-.006.011 1.265.805zm-.979-.416l-1.462-.335-.006.024-.004.024 1.472.287zm-.731-4.892l1.276-.79-.008-.012-1.268.802zm-10.31-2.065l-.783-1.28-.009.005.792 1.275zm-4.135 19.175l1.456-.36-.002-.009-1.454.369zm5.313 15.149c1.217-.521 1.223-.524 6.591-2.867l-1.2-2.749c-5.373 2.345-5.367 2.342-6.571 2.858l1.18 2.758zm6.588-2.865c5.03-2.179 8.62-4.19 11.819-6.661l-1.834-2.374c-2.942 2.271-6.294 4.166-11.178 6.282l1.193 2.753zm11.815-6.658c2.803-2.151 4.548-4.285 5.779-7.184l-2.762-1.172c-.996 2.348-2.381 4.087-4.843 5.976l1.826 2.38zm5.779-7.184c1.553-3.658 1.618-7.237-.235-10.152L231 167.92c1.167 1.835 1.303 4.313.005 7.37l2.762 1.172zm-.237-10.154c-1.017-1.593-2.506-2.919-4.276-3.67l-1.172 2.762c1.167.495 2.201 1.397 2.92 2.522l2.528-1.614zm-4.276-3.67c-1.444-.613-3.312-.949-4.638-.822l.285 2.986c.739-.07 2.105.141 3.181.598l1.172-2.762zm-4.668-.819c-2.134.246-4.177 1.703-5.411 3.573l2.504 1.652c.852-1.291 2.173-2.121 3.251-2.245l-.344-2.98zm-5.424 3.594c-.149.233-.26.399-.345.518-.09.125-.124.158-.116.15.007-.007.041-.04.102-.082.062-.043.165-.104.308-.149.15-.048.316-.069.489-.056.167.013.3.057.389.094l-1.172 2.762c.317.135.741.205 1.201.059.387-.123.653-.355.803-.505.288-.287.574-.713.872-1.181l-2.531-1.61zm.827.475c.048.021.38.161.601.548.097.17.136.325.151.424.015.093.013.157.013.165 0 .008.002-.044.033-.225.028-.168.071-.394.133-.711l-2.944-.574c-.11.563-.208 1.059-.22 1.408-.006.18-.007.587.228 1 .271.473.68.662.833.727l1.172-2.762zm.921.249c.469-2.045.14-4.31-.918-6.017l-2.55 1.58c.608.981.851 2.427.544 3.767l2.924.67zm-.925-6.029c-.845-1.337-2.107-2.299-3.814-3.023l-1.172 2.761c1.302.553 2.012 1.171 2.451 1.865l2.535-1.603zm-3.814-3.023c-3.025-1.285-5.865-1.161-8.547.48l1.565 2.559c1.779-1.088 3.589-1.22 5.81-.278l1.172-2.761zm-8.556.485c-2.019 1.254-3.8 3.39-4.773 5.683l2.761 1.172c.749-1.765 2.138-3.402 3.595-4.306l-1.583-2.549zm-4.773 5.683c-1.641 3.865-1.572 9.03-.024 15.135l2.908-.737c-1.478-5.829-1.392-10.235-.123-13.226l-2.761-1.172zm-.027 15.126c1.027 4.159 1.391 5.203 4.781 13.953l2.797-1.084c-3.386-8.741-3.688-9.631-4.665-13.588l-2.913.719z" fill="#1F1D1B"/><ellipse cx="69" cy="231.5" rx="1" ry=".5" fill="#C4C4C4"/></svg>

<svg width="240" height="240" viewBox="0 0 240 240" fill="none" xmlns="http://www.w3.org/2000/svg">
<path d="M145.924 130.237L149.498 130.817L147.382 127.88L41.6024 -18.9653L40.7386 -20.1645L39.5267 -19.3186L40.3853 -18.0886C39.5267 -19.3186 39.5263 -19.3183 39.5258 -19.3179L39.5243 -19.3169L39.5197 -19.3137L39.5042 -19.3028L39.4482 -19.2631C39.3997 -19.2286 39.3292 -19.1781 39.2375 -19.1115C39.054 -18.9784 38.7853 -18.7809 38.4375 -18.5182C37.7418 -17.9928 36.7291 -17.2069 35.4466 -16.1544C32.8818 -14.0494 29.2373 -10.8775 24.8913 -6.59084C16.1997 1.98214 4.69837 15.0177 -6.58508 32.9C-17.8786 50.7982 -24.6078 67.4508 -28.5154 79.6371C-30.4694 85.731 -31.7188 90.7109 -32.4807 94.1751C-32.8617 95.9073 -33.1209 97.2608 -33.2855 98.1855C-33.3678 98.6479 -33.4264 99.0031 -33.4647 99.2448C-33.4839 99.3657 -33.498 99.4582 -33.5075 99.5216L-33.5183 99.5948L-33.5211 99.6147L-33.522 99.6206L-33.5222 99.6224C-33.5223 99.6231 -33.5224 99.6236 -32.037 99.8321L-33.5224 99.6236L-33.7265 101.077L-32.2773 101.313L145.924 130.237Z" fill="#FFEA56" stroke="black" stroke-width="3"/>
<mask id="mask0" mask-type="alpha" maskUnits="userSpaceOnUse" x="-68" y="-40" width="221" height="232">
<path d="M145.924 130.237L149.498 130.817L147.382 127.88L41.6024 -18.9653L40.7386 -20.1645L39.5267 -19.3186L40.3853 -18.0886C39.5267 -19.3186 39.5263 -19.3183 39.5258 -19.3179L39.5243 -19.3169L39.5197 -19.3137L39.5042 -19.3028L39.4482 -19.2631C39.3997 -19.2286 39.3292 -19.1781 39.2375 -19.1115C39.054 -18.9784 38.7853 -18.7809 38.4375 -18.5182C37.7418 -17.9928 36.7291 -17.2069 35.4466 -16.1544C32.8818 -14.0494 29.2373 -10.8775 24.8913 -6.59084C16.1997 1.98214 4.69837 15.0177 -6.58508 32.9C-17.8786 50.7982 -24.6078 67.4508 -28.5154 79.6371C-30.4694 85.731 -31.7188 90.7109 -32.4807 94.1751C-32.8617 95.9073 -33.1209 97.2608 -33.2855 98.1855C-33.3678 98.6479 -33.4264 99.0031 -33.4647 99.2448C-33.4839 99.3657 -33.498 99.4582 -33.5075 99.5216L-33.5183 99.5948L-33.5211 99.6147L-33.522 99.6206L-33.5222 99.6224C-33.5223 99.6231 -33.5224 99.6236 -32.037 99.8321L-33.5224 99.6236L-33.7265 101.077L-32.2773 101.313L145.924 130.237Z" fill="white" stroke="white" stroke-width="3"/>
</mask>
<g mask="url(#mask0)">
<path fill-rule="evenodd" clip-rule="evenodd" d="M51.7222 -2.58277L40.5648 -18.0669C40.5648 -18.0669 17.2897 -1.82604 -5.13623 33.7108C-27.5621 69.2476 -31.8521 99.8316 -31.8521 99.8316L-12.5052 102.973C-9.95443 92.0012 -3.19219 69.1184 12.8471 43.702C27.8204 19.9748 43.1723 4.84966 51.7222 -2.58277Z" fill="#8BB2E8"/>
</g>
<path d="M-13.2834 101.371C-7.04769 79.5042 1.19174 60.9124 12.3948 43.4299C23.5979 25.9474 36.5039 10.9569 51.113 -1.54166" stroke="black" stroke-width="3" stroke-linecap="square"/>
<path fill-rule="evenodd" clip-rule="evenodd" d="M99.1732 89.5366C100.63 93.3306 98.8788 97.5314 95.2628 98.9194C91.7551 100.266 87.7807 98.4709 86.2164 94.899L79.7613 98.0815C83.2933 105.399 91.791 108.552 98.7416 105.125C105.692 101.698 108.464 92.9888 104.932 85.6718L98.7933 88.6982C98.9346 88.9664 99.0617 89.2461 99.1732 89.5366Z" fill="#B23221"/>
<path fill-rule="evenodd" clip-rule="evenodd" d="M33.1479 89.6618C40.1085 86.9899 43.5852 79.1811 40.9132 72.2205C38.2413 65.2599 30.4326 61.7832 23.4719 64.4551C16.5113 67.1271 13.0346 74.9358 15.7066 81.8964C18.3785 88.8571 26.1872 92.3337 33.1479 89.6618Z" fill="#B23221"/>
<path fill-rule="evenodd" clip-rule="evenodd" d="M58.3728 52.1291C65.3334 49.4571 68.8101 41.6484 66.1381 34.6878C63.4662 27.7271 55.6575 24.2505 48.6968 26.9224C41.7362 29.5943 38.2595 37.4031 40.9315 44.3637C43.6034 51.3243 51.4121 54.801 58.3728 52.1291Z" fill="#B23221"/>
<path fill-rule="evenodd" clip-rule="evenodd" d="M73.2497 83.9085C77.8901 82.1272 80.1276 76.7124 78.2474 71.8141C76.3671 66.9159 71.0811 64.3891 66.4407 66.1704C61.8003 67.9517 59.5627 73.3665 61.4429 78.2648C63.3232 83.163 68.6092 85.6898 73.2497 83.9085Z" fill="#B23221"/>
<path d="M144.798 168.583L171.584 125.679L197.458 141.861L170.685 184.744C166.22 191.897 156.8 194.072 149.651 189.601C142.51 185.135 140.338 175.727 144.798 168.583Z" fill="#1F1D1B" stroke="black" stroke-width="3"/>
<path fill-rule="evenodd" clip-rule="evenodd" d="M238.22 148.951C219.663 155.333 198.919 154.314 181.788 143.548C164.656 132.783 154.652 114.479 152.22 94.9075L238.22 148.951Z" fill="#1F1D1B"/>
<path fill-rule="evenodd" clip-rule="evenodd" d="M236.672 149.907L152.066 97.0968C149.488 79.9742 152.782 61.7191 162.253 46.579C182.167 14.7447 228.078 -1.22345 259.947 18.6688C291.816 38.5611 297.574 86.781 277.66 118.615C268.19 133.755 253.208 144.716 236.672 149.907Z" fill="#E376B5"/>
<path fill-rule="evenodd" clip-rule="evenodd" d="M180.777 144.039C212.579 163.929 256.762 150.576 276.634 118.746C296.506 86.9165 290.76 38.7034 258.958 18.814C227.156 -1.07551 181.341 14.8903 161.469 46.7201C141.597 78.5499 148.975 124.15 180.777 144.039Z" stroke="black" stroke-width="3"/>
<path d="M208.995 191.79C210.205 191.271 210.205 191.271 215.576 188.928C220.534 186.78 224.005 184.827 227.075 182.456C229.707 180.436 231.273 178.5 232.386 175.876C233.811 172.518 233.776 169.49 232.266 167.115C231.398 165.756 230.137 164.642 228.668 164.019C227.408 163.484 225.791 163.21 224.758 163.309C223.152 163.494 221.47 164.637 220.427 166.218C219.807 167.193 219.613 167.358 219.403 167.269C219.193 167.18 219.203 167.06 219.448 165.802C219.836 164.109 219.55 162.254 218.717 160.91C218.075 159.894 217.09 159.104 215.585 158.466C212.962 157.352 210.637 157.48 208.407 158.845C206.669 159.924 205.084 161.81 204.223 163.839C202.767 167.267 202.759 172.052 204.272 178.02C205.274 182.078 205.606 183.044 208.995 191.79Z" fill="#E8B9CE"/>
<path d="M208.995 191.79L207.596 192.332L208.157 193.78L209.585 193.169L208.995 191.79ZM215.576 188.928L214.98 187.551L214.976 187.553L215.576 188.928ZM227.075 182.456L226.162 181.266L226.158 181.269L227.075 182.456ZM232.266 167.115L233.532 166.31L233.53 166.308L232.266 167.115ZM224.758 163.309L224.616 161.816L224.601 161.817L224.586 161.819L224.758 163.309ZM220.427 166.218L219.175 165.392L219.168 165.402L219.162 165.413L220.427 166.218ZM219.448 165.802L217.986 165.467L217.98 165.491L217.976 165.515L219.448 165.802ZM218.717 160.91L219.993 160.12L219.985 160.108L218.717 160.91ZM208.407 158.845L207.624 157.565L207.615 157.57L208.407 158.845ZM204.272 178.02L205.728 177.66L205.726 177.651L204.272 178.02ZM209.585 193.169C210.802 192.648 210.808 192.645 216.176 190.302L214.976 187.553C209.603 189.898 209.609 189.895 208.405 190.411L209.585 193.169ZM216.173 190.304C221.203 188.125 224.793 186.114 227.992 183.643L226.158 181.269C223.216 183.54 219.864 185.435 214.98 187.551L216.173 190.304ZM227.988 183.646C230.791 181.495 232.536 179.361 233.767 176.462L231.005 175.29C230.009 177.638 228.624 179.377 226.162 181.266L227.988 183.646ZM233.767 176.462C235.32 172.804 235.385 169.225 233.532 166.31L231 167.92C232.167 169.755 232.303 172.233 231.005 175.29L233.767 176.462ZM233.53 166.308C232.513 164.715 231.024 163.389 229.254 162.638L228.082 165.4C229.249 165.895 230.283 166.797 231.002 167.922L233.53 166.308ZM229.254 162.638C227.81 162.025 225.942 161.689 224.616 161.816L224.901 164.802C225.64 164.732 227.006 164.943 228.082 165.4L229.254 162.638ZM224.586 161.819C222.452 162.065 220.409 163.522 219.175 165.392L221.679 167.044C222.531 165.753 223.852 164.923 224.93 164.799L224.586 161.819ZM219.162 165.413C219.013 165.646 218.902 165.812 218.817 165.931C218.727 166.056 218.693 166.089 218.701 166.081C218.708 166.074 218.742 166.041 218.803 165.999C218.865 165.956 218.968 165.895 219.111 165.85C219.261 165.802 219.427 165.781 219.6 165.794C219.767 165.807 219.9 165.851 219.989 165.888L218.817 168.65C219.134 168.785 219.558 168.855 220.018 168.709C220.405 168.586 220.671 168.354 220.821 168.204C221.109 167.917 221.395 167.491 221.693 167.023L219.162 165.413ZM219.989 165.888C220.037 165.909 220.369 166.049 220.59 166.436C220.687 166.606 220.726 166.761 220.741 166.86C220.756 166.953 220.754 167.017 220.754 167.025C220.754 167.033 220.756 166.981 220.787 166.8C220.815 166.632 220.858 166.406 220.92 166.089L217.976 165.515C217.866 166.078 217.768 166.574 217.756 166.923C217.75 167.103 217.749 167.51 217.984 167.923C218.255 168.396 218.664 168.585 218.817 168.65L219.989 165.888ZM220.91 166.137C221.379 164.092 221.05 161.827 219.992 160.12L217.442 161.7C218.05 162.681 218.293 164.127 217.986 165.467L220.91 166.137ZM219.985 160.108C219.14 158.771 217.878 157.809 216.171 157.085L214.999 159.846C216.301 160.399 217.011 161.017 217.45 161.711L219.985 160.108ZM216.171 157.085C213.146 155.8 210.306 155.924 207.624 157.565L209.189 160.124C210.968 159.036 212.778 158.904 214.999 159.846L216.171 157.085ZM207.615 157.57C205.596 158.824 203.815 160.96 202.842 163.253L205.603 164.425C206.352 162.66 207.741 161.023 209.198 160.119L207.615 157.57ZM202.842 163.253C201.201 167.118 201.27 172.283 202.818 178.388L205.726 177.651C204.248 171.822 204.334 167.416 205.603 164.425L202.842 163.253ZM202.815 178.379C203.842 182.538 204.206 183.582 207.596 192.332L210.393 191.248C207.007 182.507 206.705 181.617 205.728 177.66L202.815 178.379Z" fill="#1F1D1B"/>
<ellipse cx="69" cy="231.5" rx="1" ry="0.5" fill="#C4C4C4"/>
</svg>
